icon/ir/wifi-rounded.svg

<svg stroke-width="1.5" viewBox="0 0 24 24" fill="none" xmlns="http://www.w3.org/2000/svg" height="1em" width="1em">
  <path d="M2 15V9C2 5.68629 4.68629 3 8 3H16C19.3137 3 22 5.68629 22 9V15C22 18.3137 19.3137 21 16 21H8C4.68629 21 2 18.3137 2 15Z" stroke="currentColor" stroke-width="1.5"/>
  <path d="M12 14.76L12.01 14.7489" stroke="currentColor" stroke-linecap="round" stroke-linejoin="round"/>
  <path d="M7 11.2499C9.5 8.25001 14.5 8.25 17 11.25" stroke="currentColor" stroke-linecap="round" stroke-linejoin="round"/>
  <path d="M9 13.25C10.5 11.25 13.5 11.25 15 13.25" stroke="currentColor" stroke-linecap="round" stroke-linejoin="round"/>
</svg>

<svg width="24" height="24" stroke-width="1.5" fill="none" xmlns="http://www.w3.org/2000/svg"><path d="M2 15V9a6 6 0 0 1 6-6h8a6 6 0 0 1 6 6v6a6 6 0 0 1-6 6H8a6 6 0 0 1-6-6Z" stroke="currentColor"/><path d="m12 14.76.01-.011M7 11.25c2.5-3 7.5-3 10 0M9 13.25c1.5-2 4.5-2 6 0" stroke="currentColor" stroke-linecap="round" stroke-linejoin="round"/></svg>
